X: 35
T: No_128_Song_of_Protection_During_the_Civil_War_(a).krn
N: Derived from No_128_Song_of_Protection_During_the_Civil_War_(a).krn
%%abc-version 2.0
%%abcx-abcm2ps-target-version 5.9.1 (29 Sep 2008)
%%abc-creator hum2abc beta
%%abcx-conversion-date 2019/03/15 08:35:44
%%humdrum-veritas 2323797017
%%humdrum-veritas-data 941647130
%%linebreak <none>
%%barnumbers 0
L: 1/8
M: 2/4
K: F clef=bass
[K:clef=bass][M:2/4]z2z C | 
C2CC | 
C4- | 
C2C2 | 
B,2G,F, | 
F,4- | 
F, zG,2 ]|:  
B,2A,G, | 
F,4- | 
F,2G,2 | 
F,2D,C, | 
C,4- | 
C,2z D, | 
F,2D,C, ||  
[M:3/4]C,4z D, ||  
[M:2/4]C,2C,D, ||  
[M:3/4]C,4z G, :|]  
[M:2/4]C,4 |]  



